config/expand/iconfont/nav-menu/menu-ruzhushenhe.svg

<?xml version="1.0" standalone="no"?><!DOCTYPE svg PUBLIC "-//W3C//DTD SVG 1.1//EN" "http://www.w3.org/Graphics/SVG/1.1/DTD/svg11.dtd"><svg class="icon" width="48px" height="48.00px" viewBox="0 0 1024 1024" version="1.1" xmlns="http://www.w3.org/2000/svg"><path fill="#D9DDE1" d="M503.873016 867.859518h-345.556806V1023.872016H0v-273.053868h499.969504c-3.455568 16.765904-4.927384 35.195601-4.607424 55.161105 0.31996 20.029496 3.1996 40.634921 8.510936 61.880265z m2.367704-526.590177c146.221722 0 239.394076 10.430696 279.645044 30.140233 48.057993 23.165104 99.059618 77.686289 133.423322 128.623922 33.019873 49.721785 3.455568 7.35908 36.283465 52.985377-30.908136-35.323585-95.988001-52.985377-195.367579-52.985377-160.619923 0-248.288964 182.569179-248.288964 182.569179H0c4.927384-13.950256 11.774528-50.425697 44.154481-109.554306 16.63792-28.924384 32.379953-55.609049 49.081864-79.990001 32.315961-49.785777 83.381577-104.306962 125.552306-121.584802 46.074241-19.773528 141.294338-30.204224 287.452069-30.204225z m348.692413 4.287464a52.025497 52.025497 0 0 0 8.95888-29.11636c0-20.925384-12.030496-39.547057-36.027496-55.801025 0-1.151856-0.95988-3.51956-0.95988-4.671416A26.428696 26.428696 0 0 0 831.896013 242.017748c0-15.166104-15.998-29.11636-46.970129-39.547057-31.03612-10.494688-68.983377-16.31796-113.009874-16.31796S589.942257 191.976003 558.906137 202.470691C527.934008 212.901387 511.936008 226.851644 511.936008 242.017748A26.23672 26.23672 0 0 0 516.927384 255.968004 64.631921 64.631921 0 0 0 511.936008 279.1971c0 7.03912 1.983752 14.014248 4.991376 22.141233a101.555306 101.555306 0 0 0-73.974753 0c3.007624-8.126984 4.991376-15.102112 4.991376-22.141233A64.631921 64.631921 0 0 0 442.952631 255.968004 26.108736 26.108736 0 0 0 447.944007 242.017748c0-15.166104-15.998-29.11636-46.970129-39.547057C369.873766 191.976003 331.990501 186.152731 287.964004 186.152731S205.990251 191.976003 174.954131 202.470691C143.982002 212.901387 127.984002 226.851644 127.984002 242.017748A26.23672 26.23672 0 0 0 132.975378 255.968004c0 1.151856-0.95988 3.51956-0.95988 4.671416-23.997 16.253968-36.027497 34.875641-36.027497 55.801025 0 10.494688 3.007624 19.83752 8.958881 29.11636-26.940632 19.83752-40.954881 40.698913-40.954881 63.992001H0V34.939633C0 16.253968 12.990376 0 30.012248 0H929.803775c17.021872 0 30.012248 16.253968 30.012248 34.939633V409.548806h-63.992001c0-23.293088-14.014248-44.154481-40.954881-63.992001z"  /><path fill="#D9DDE1" d="M950.217223 751.266092l-162.539683 136.494938a36.347457 36.347457 0 0 1-23.293088 8.126984 36.347457 36.347457 0 0 1-23.35708-8.126984l-91.44457-76.790401a24.828896 24.828896 0 0 1-8.510936-26.812649 30.844144 30.844144 0 0 1 23.293088-19.581552 37.435321 37.435321 0 0 1 31.868017 7.167104l68.151481 57.208849 139.182602-116.913386c8.31896-7.03912 20.47744-9.726784 31.868017-7.167104 11.390576 2.55968 20.285464 10.046744 23.293088 19.581552a24.828896 24.828896 0 0 1-8.510936 26.812649M799.900012 575.928009a223.972003 223.972003 0 1 0 0 448.071991A223.972003 223.972003 0 0 0 799.900012 575.928009"  /></svg>

<svg class="icon" width="48" height="48" viewBox="0 0 1024 1024" xmlns="http://www.w3.org/2000/svg"><path d="M503.873 867.86H158.316v156.012H0V750.818h499.97c-3.456 16.766-4.928 35.196-4.608 55.161.32 20.03 3.2 40.635 8.511 61.88zm2.368-526.59c146.221 0 239.394 10.43 279.645 30.14 48.058 23.165 99.06 77.686 133.423 128.623 33.02 49.722 3.456 7.36 36.284 52.986-30.909-35.324-95.988-52.986-195.368-52.986-160.62 0-248.289 182.57-248.289 182.57H0c4.927-13.95 11.775-50.426 44.154-109.555 16.638-28.924 32.38-55.609 49.082-79.99 32.316-49.785 83.382-104.307 125.553-121.584 46.074-19.774 141.294-30.205 287.452-30.205zm348.692 4.287a52.025 52.025 0 008.959-29.117c0-20.925-12.03-39.547-36.027-55.8 0-1.152-.96-3.52-.96-4.672a26.429 26.429 0 004.991-13.95c0-15.166-15.998-29.117-46.97-39.547-31.036-10.495-68.983-16.318-113.01-16.318s-81.974 5.823-113.01 16.318c-30.972 10.43-46.97 24.38-46.97 39.547a26.237 26.237 0 004.991 13.95 64.632 64.632 0 00-4.991 23.23c0 7.038 1.984 14.013 4.991 22.14a101.555 101.555 0 00-73.974 0c3.007-8.127 4.991-15.102 4.991-22.14a64.632 64.632 0 00-4.991-23.23 26.109 26.109 0 004.991-13.95c0-15.166-15.998-29.117-46.97-39.547-31.1-10.495-68.983-16.318-113.01-16.318s-81.974 5.823-113.01 16.318c-30.972 10.43-46.97 24.38-46.97 39.547a26.237 26.237 0 004.991 13.95c0 1.152-.96 3.52-.96 4.671-23.997 16.254-36.027 34.876-36.027 55.801 0 10.495 3.008 19.838 8.959 29.117-26.94 19.837-40.955 40.699-40.955 63.992H0V34.939C0 16.255 12.99 0 30.012 0h899.792c17.022 0 30.012 16.254 30.012 34.94v374.609h-63.992c0-23.293-14.014-44.155-40.955-63.992z"/><path d="M950.217 751.266l-162.54 136.495a36.347 36.347 0 01-23.293 8.127 36.347 36.347 0 01-23.357-8.127l-91.444-76.79a24.829 24.829 0 01-8.511-26.813 30.844 30.844 0 0123.293-19.582 37.435 37.435 0 0131.868 7.168l68.151 57.208L903.567 712.04c8.319-7.04 20.477-9.727 31.868-7.167 11.39 2.56 20.286 10.047 23.293 19.581a24.829 24.829 0 01-8.51 26.813M799.9 575.928a223.972 223.972 0 100 448.072 223.972 223.972 0 000-448.072"/></svg>
